X:1
T:Aille's Arabesque
C:John McSherry
S:Tripswitch
M:6/8
L:1/8
R:jig
K:G
d | BAG GF/E/D | E3 D2B | DE/F/G A2d | BAG GB/c/d | edg edB | BAG A2d |
BAG GF/E/D | E3 D2B | DE/F/G A2d | BAG GB/c/d | edg edB | Bcd e2a | 
age dBA | B3 G2A | Bcd e2a | age g2b | age dBA | Bcd e3 |
age dBA | B3 G2A | Bcd e2a | age g2b | age dBA | B2G A2 |]
